images/Vector.svg

<svg width="34" height="29" viewBox="0 0 34 29" fill="none" xmlns="http://www.w3.org/2000/svg">
<path d="M32.8511 9.76541L8.73057 0.829184C8.42205 0.715178 8.07929 0.872936 7.96553 1.1817C7.96528 1.18195 7.96528 1.1822 7.96503 1.18245L5.29489 8.45059C5.18138 8.75935 5.33964 9.10187 5.64841 9.21538H5.64891L8.44481 10.2419L7.82877 11.9203C7.71552 12.229 7.87378 12.5711 8.18254 12.6846L13.7753 14.7379L13.3643 15.8567C12.9908 16.8588 13.3393 17.9868 14.2134 18.6031V21.6433H6.19744C5.80942 20.7562 5.01537 20.1122 4.06707 19.9157V18.6646C4.06707 18.3356 3.80056 18.0688 3.47129 18.0688H1.06941C0.740397 18.0688 0.473633 18.3356 0.473633 18.6646V28.1964C0.473633 28.5257 0.740397 28.7922 1.06941 28.7922H3.47129C3.80056 28.7922 4.06707 28.5257 4.06707 28.1964V26.9456C5.01537 26.7488 5.80942 26.105 6.19744 25.2177H14.2134V25.8135C14.2134 26.8006 15.0134 27.6009 16.0005 27.6009C16.9875 27.6009 17.7878 26.8006 17.7878 25.8135V19.2139C18.3293 18.9454 18.7476 18.4796 18.9561 17.9121L19.3671 16.7933L24.4004 18.6401C24.4662 18.6644 24.5354 18.6766 24.6054 18.6766C24.8552 18.6766 25.0787 18.5209 25.1649 18.2864L25.3882 17.6781C27.3268 18.0428 29.1939 16.767 29.5584 14.8287C29.6932 14.1124 29.6057 13.3721 29.3077 12.7071L32.9191 10.8527C33.2119 10.7027 33.3276 10.3437 33.1776 10.0509C33.1096 9.91792 32.9941 9.81541 32.8541 9.76366L32.8511 9.76541ZM15.4047 19.1459L15.898 19.3247C16.1225 19.4052 16.358 19.4514 16.5962 19.4617V21.6433H15.4047V19.1459ZM2.87576 27.6009H1.6652V19.2604H2.87576V27.6009ZM5.25864 24.0264C5.25764 24.7835 4.78061 25.4582 4.06707 25.7118V21.1495C4.78061 21.4028 5.25764 22.0776 5.25864 22.8349V24.0264ZM6.4687 22.8349H16.5962V24.0264H6.4687V22.8349ZM16.0005 26.4093C15.6714 26.4093 15.4047 26.1425 15.4047 25.8135V25.2177H16.5962V25.8135C16.5962 26.1425 16.3295 26.4093 16.0005 26.4093ZM18.2488 16.383L17.8378 17.5018C17.6108 18.1189 16.9265 18.4354 16.309 18.2089L15.1884 17.7983C14.5709 17.5716 14.2539 16.887 14.4806 16.2693C14.4806 16.2693 14.4806 16.2693 14.4806 16.269L14.8919 15.1509L17.9116 16.2595L18.2488 16.383ZM24.2521 17.3183L9.15234 11.7735L9.56361 10.6547L18.5111 13.9404C18.7229 14.0174 18.9604 13.9691 19.1251 13.8151L20.797 12.2413L25.4842 13.9629L24.2521 17.3183ZM28.2801 14.9899C27.9026 16.0077 26.8873 16.6438 25.807 16.539L26.7275 14.0314L28.2311 13.2571C28.4664 13.8076 28.4839 14.4272 28.2801 14.9899ZM26.2693 12.9301C26.2377 12.9328 26.2065 12.9383 26.1757 12.9466L20.8642 10.9962C20.6525 10.9185 20.4149 10.9667 20.2504 11.1212L18.5766 12.6953L6.61871 8.30408L8.87733 2.15425L31.1675 10.4124L26.2693 12.9301Z" fill="#E3B873"/>
</svg>

<svg width="34" height="29" fill="none" xmlns="http://www.w3.org/2000/svg">
  <path d="M32.851 9.765 8.731.83a.595.595 0 0 0-.765.353h-.001l-2.67 7.269a.596.596 0 0 0 .353.764l2.797 1.027-.616 1.678a.596.596 0 0 0 .354.765l5.592 2.053-.41 1.119a2.354 2.354 0 0 0 .848 2.746v3.04H6.197a2.987 2.987 0 0 0-2.13-1.727v-1.251a.596.596 0 0 0-.596-.596H1.07a.596.596 0 0 0-.595.596v9.531c0 .33.266.596.595.596h2.402c.33 0 .596-.266.596-.596v-1.25a2.987 2.987 0 0 0 2.13-1.728h8.016v.596a1.787 1.787 0 1 0 3.575 0v-6.6c.541-.269.96-.734 1.168-1.302l.411-1.119L24.4 18.64a.596.596 0 0 0 .764-.354l.224-.608a3.571 3.571 0 0 0 3.92-4.97l3.611-1.855a.596.596 0 0 0-.065-1.09l-.003.002Zm-17.446 9.38.493.18c.224.08.46.126.698.137v2.181h-1.191v-2.497Zm-12.53 8.456h-1.21v-8.34h1.21v8.34Zm2.384-3.575a1.791 1.791 0 0 1-1.192 1.686v-4.563a1.79 1.79 0 0 1 1.192 1.686v1.191Zm1.21-1.191h10.127v1.191H6.47v-1.191ZM16 26.409a.596.596 0 0 1-.595-.595v-.596h1.191v.596a.596.596 0 0 1-.596.595Zm2.249-10.026-.411 1.119a1.192 1.192 0 0 1-1.529.707l-1.12-.41a1.192 1.192 0 0 1-.708-1.53l.41-1.118 3.02 1.108.338.124Zm6.003.935-15.1-5.545.412-1.118 8.947 3.285a.6.6 0 0 0 .614-.125l1.672-1.574 4.687 1.722-1.232 3.355Zm4.028-2.328a2.392 2.392 0 0 1-2.473 1.549l.92-2.508 1.504-.774c.235.55.253 1.17.05 1.733Zm-2.01-2.06a.534.534 0 0 0-.094.017l-5.312-1.95a.596.596 0 0 0-.614.124l-1.673 1.574-11.958-4.39 2.258-6.15 22.29 8.257-4.898 2.518Z" fill="#E3B873"/>
</svg>
